X: 32355
T: Pinnacle Ridge
R: reel
M: 4/4
K: Aminor
A,ECA, CEAE|^FAcB ABcd|e~c3 d~B3|cABG EDCB,|
A,ECA, CEAE|^FAcB ABcd|eage dcBc|1 ecBc A2z2:|2 ecBc Aceg||
|:a2e g2de2-|eged cBAG|FAcd edcd|egge gaab|age(g g)deg|
aged cBAG|1 ^G2 B A2 c B2|d c2 e dege:|2 F F2 (E E)DCD|EDED EDCB,||

